X: 1
P: Schottis efter Timas Hans
R: shottish
Z: John Chambers <jc@trillian.mit.edu>
M: 4/4
L: 1/8
%%scale 0.65
K: D
  zA \
| "D"d2 cd A2 FA \
| {A}d2 cd "G"B4 \
| "A7".ez .Az g2 eg \
| "D"f>e dc "G"B2 A2 \
| "D"d2 cd A2 FA \
| {A}d2 cd "G"B4 \
| "A7".ez .Az A2 Bc \
| "D"d>e dc d2 :|
|: zg \
| "D"f>g fe d2 df \
| "A7"ef ec A4 \
| "G"B2 GB d2 cB \
| "D"AB AG F2 DF \
| AB AF D2 FA \
| dc de f4 \
| "A7".ez .Az .ez .Az \
| "D"d>e dc d2 :|
|: zg \
| "D"f>g fe d2 A2 \
| dc db a3 f \
| "A7"g>a gf e2 A2 \
| gf gb "D"a3 g \
| "D"f>g fe d2 A2 \
| dc db a3 f \
| "A7"g>f ed cA Bc \
| "D"d2 d2 d2 :|
|: DE \
| "D"F2 FD "G"G2 GE \
| "D"DF Ad f2 fa \
| "A7"g>f ed cA Bc \
| "D"df ed cB AG \
| "D"F2 DF "G"G2 GE \
| "D"DF Ad f3 a \
| "A7"g>f ed cA Bc \
| "D"d2 d2 d2 :|
